X:1
T:Per ampla strada
T:Per ampla strada
T:Jhan Gero
T:Source : Trium vocum cantiones---Nürnberg---J.Petreius---1541. Editor : André Vierendeels (23/09/16).
T:Notes :Original clefs : C3, C4, F4 Editorial accidentals above the staff Original note values have been halved Square brackets indicate ligatures
T:©
T:©
T:©
T:©
T:©
C:Jhan Gero
Z:©
%%score [ 1 2 3 ]
L:1/8
Q:1/4=120
M:2/2
K:F
V:1 treble-8 nm="Tenor 1" snm="T 1"
V:2 treble-8 nm="Tenor 2" snm="T 2"
V:3 bass nm="Bass" snm="B"
V:1
 c4 c4- | c2 c2 d4 | c8 | z8 | z4 f4 | e2 c2 d2 e2 | fedc d4 | c4 z2 F2 | F2 G2 A2 A2 | %9
w: Per am-|* pla stra-|da||en-|trai nel la- bi-|rin- * * * *|tho, del|crud' ar- cier che|
 B3 B A2 G2 | GF F4 E2 | F4 c4 | d2 c2 A2 B2 | c4 c4 | z2 c2 f4- | f2 c2 f4- | f2 c2 f4- | %17
w: no- mi- nat' a-|mo- * * *|re, et|a me piu ch'a-|ma- ro,|ti- rann'|_ em- pi'e|_ cru- del|
 f2 c2 d2 e2 | f4 e4 | c4 c2 c2 | A2 B2 G4- | G4 F4 | G3 A B4 | A2 c2 B2 A2- | A2 G2 A4 | %25
w: _ di- ro si-|gno- re,|ne tro- vo|mod' al- cun-|* di|ri- pa- rar|_ _ _ _|* * mi,|
 c4 c2 c2 | c2 c2 d4 | d2 B4 A2 | G4 A4- | A4 z4 | c4 B2 A2- | A2 G3 F F2- | F2 E2 F4 | z4 z2 f2 | %34
w: con- tra col-|pi mor- tal|ch'ogn' hor dis-|ser- ra,|_|per por- mi|_ giu sot- ter-|* * ra,|ne|
 e2 d2 c2 B2 | A2 A2 d4- | d2 c2 B4 | A4 z2 A2 | A2 G2 F2 F2 | c4 d4 | e4 f4 | e2 d3 c c2- | %42
w: mi val di ra-|gio- ne pren-|* der l'ar-|mi, poi|ch'in- va- ghi- to|m'ha don-|na si|bel- * * *|
 c2 B2 c4- | c8 | z4 c4 | c2 B2 A2 A2 | G2 B2 A2 G2 | GF F4 E2 | FG A3 GAB | c4 z4 | c4 c2 B2 | %51
w: * * la,|_|che|piu del sol ri-|splend' e d'o- gni|_ _ stel- *||la,|che piu del|
 A2 A2 G2 B2 | A2 G3 F F2- | F2 E2 F4- | F8- | F8- | F8 |] %57
w: sol ri- splend' e|d'o- gni _ stel-|* * la.|_|||
V:2
 A4 A4- | A2 A2 B4 | A8 | c4 B2 G2 | A2 c4 B2 | c3 B/A/ B2 c2 | dc c4 B2 | c2 C2 C4 | D4 E2 F2 | %9
w: Per am-|* pla stra-|da|en- trai nel|la- be- rin-|||tho, del crud'|ar- cier che|
 D3 E F2 E2 | F4 G4 | F4 z2 E2 | D2 E2 F2 F2 | G4 E2 G2 | A6 F2 | A6 F2 | A6 F2 | A4 B2 c2- | %18
w: no- mi- nat' a-|mo- *|re, et|a me piu ch'a-|ma- ro, ti-|rann' em-|pi'e cru-|del di-|ro si- gno-|
"^-natural" c2 B2 c4 | z2 G4 E2 | F2 D2 E4- | E4 C2 D2 | D6 E2 | F3 E D2 C2 | D4 E4 | A4 A2 A2 | %26
w: * * re,|ne tro-|vo mod' al-|* cun di|ri pa-|rar _ _ _|_ mi,|con- tra col-|
 A2 A2 B4 | A2 G3 F F2- | F2 E2 F4 | c4 B2 A2- | A2 G2 F4 | E2 D4 C2 | G4 C2 c2 | B2 A2 G2 F2 | %34
w: pi mor- tal|ch'ogn' hor dis- ser-|* * ra,|per por- mi|_ giu sot-|ter- * *|* ra, ne|mi val di ra-|
 G2 G2 A3 G | FE A4 G2 | A2 A4 G2 | A8 | z4 F4 | F2 E2 D2 D2 | C2 G2 F2 D2 | E2 F4 E2 | D4 C4 | %43
w: gio- ne pren- *||der l'ar- *|mi,|poi|ch'in- va ghi- to|m'ha d'u- na si|bel _ _|_ la,|
 z2 F2 F2 E2 | D2 D2 C2 C2 | D2 E2 F3 E/D/ | E2 F4 E2 | F4 G4 | F4 z2 F2 | F2 E2 D2 D2 | %50
w: che piu del|sol ri- splend' e|d'o- gni _ _ _|stel- * *||la, che|piu del sol ri-|
 C2 C2 D2 E2 | F3 E/D/ E2 F2- | F2 E2 F4 | G4 F4 | z2 D2 D2 C2 | D4 C4- | C8 |] %57
w: splend' e d'o- gni|stel- * * * *||* la,|e d'o- gni|stel- la.|_|
V:3
 F,4 F,4- | F,2 F,2 B,,4 | F,6 F,2 | E,2 C,2 D,2 E,2 | F,E,D,C, D,4 | C,4 z4 | F,,4 F,,2 G,,2 | %7
w: Per am-|* pla stra-|da en-|trai nel la- be-|rin- * * * *|tho,|del crud' ar-|
 A,,6 F,,2 | B,,3 B,, A,,2 F,,2 | G,,4 F,,2 C,2 | D,4 C,4 | F,,4 A,,4 | B,,2 C,2 D,2 D,2 | %13
w: cier che|no- mi- nat' a-|mo- re, a-|mo- *|re, et|a me piu ch'a-|
 C,2 C,2 z2 C,2 | F,6 D,2 | F,6 D,2 | F,6 D,2 | F,3 E, D,2 C,2 | D,4 C,4- | C,8 | z4 C,4 | %21
w: ma- ro, ti-|rann' em-|pi'e cru-|del di-|ro _ _ si-|gno- re,|_|ne|
 C,2 C,2 A,,2 B,,2 | G,,8 | F,,4 G,,2 A,,2 | B,,4 A,,4 | F,4 F,2 F,2 | F,2 F,2 B,,3 C, | %27
w: tro- vo mod' al-|cun|de ri- pa-|rar mi,|con- tra col-|pi mor- tal _|
 D,2 _E,4 F,2 | C,4 F,,4- | F,,4 z2 F,2- | F,2 E,2 D,4 | C,2 B,,4 A,,2 | G,,4 F,,4 | %33
w: ch'ogn' hor dis-|ser- ra,|_ per|_ por- mi|giu sot- *|ter- ra,|
 z2 F,2 E,2 D,2 | C,2 B,,2 A,,2 A,,2 | D,3 C, B,,4 | A,,2 C,2 D,2 E,2 | F,4 F,4 | F,2 E,2 D,2 D,2 | %39
w: ne mi val|di ra- gio- ne|pren- der l'ar-|mi, pren- der l'ar-|mi, poi|ch'in- va- ghi- to|
 C,4 F,4 | E,2 C,2 D,4 | C,2 B,,4 C,2 | G,,4 A,,4 | F,,4 z2 C,2 | C,2 B,,2 A,,2 A,,2 | G,,4 F,,4 | %46
w: m'ha don-|na si bel-|* la, si|bel- *|la, che|piu del sol ri-|splend' e|
 C,2 B,,2 C,4 | D,4 C,4 | F,,8 | z2 C,2 C,2 B,,2 | A,,2 A,,2 G,,4 | F,,4 C,2 B,,2 | C,4 D,4 | %53
w: d'o- gni stel-||la,|che piu del|sol ri- splend'|e d'o- gni|stel- *|
 C,4 F,,4 | z2 B,,2 B,,2 A,,2 | B,,4 F,,4- | F,,8 |] %57
w: * la,|e d'o- gni|stel- la.|_|

